assets/images/footer-icon2.svg

<svg width="24" height="18" viewBox="0 0 24 18" fill="none" xmlns="http://www.w3.org/2000/svg">
<g id="icon">
<g id="icon_2">
<path fill-rule="evenodd" clip-rule="evenodd" d="M9.49614 4.13176C9.18664 3.9549 8.80639 3.95617 8.49807 4.13509C8.18976 4.31401 8 4.64353 8 5V13C8 13.3565 8.18976 13.686 8.49807 13.8649C8.80639 14.0438 9.18664 14.0451 9.49614 13.8682L16.4961 9.86824C16.8077 9.6902 17 9.35886 17 9C17 8.64114 16.8077 8.3098 16.4961 8.13176L9.49614 4.13176ZM13.9844 9L10 11.2768V6.72318L13.9844 9Z" fill="#0F0F0F"/>
<path fill-rule="evenodd" clip-rule="evenodd" d="M0 9C0 5.25027 0 3.3754 0.954915 2.06107C1.26331 1.6366 1.6366 1.26331 2.06107 0.954915C3.3754 0 5.25027 0 9 0H15C18.7497 0 20.6246 0 21.9389 0.954915C22.3634 1.26331 22.7367 1.6366 23.0451 2.06107C24 3.3754 24 5.25027 24 9C24 12.7497 24 14.6246 23.0451 15.9389C22.7367 16.3634 22.3634 16.7367 21.9389 17.0451C20.6246 18 18.7497 18 15 18H9C5.25027 18 3.3754 18 2.06107 17.0451C1.6366 16.7367 1.26331 16.3634 0.954915 15.9389C0 14.6246 0 12.7497 0 9ZM9 2H15C16.9194 2 18.1983 2.00275 19.1673 2.10773C20.0989 2.20866 20.504 2.38448 20.7634 2.57295C21.018 2.75799 21.242 2.98196 21.4271 3.23664C21.6155 3.49605 21.7913 3.90113 21.8923 4.83269C21.9973 5.80167 22 7.08058 22 9C22 10.9194 21.9973 12.1983 21.8923 13.1673C21.7913 14.0989 21.6155 14.504 21.4271 14.7634C21.242 15.018 21.018 15.242 20.7634 15.4271C20.504 15.6155 20.0989 15.7913 19.1673 15.8923C18.1983 15.9973 16.9194 16 15 16H9C7.08058 16 5.80167 15.9973 4.83269 15.8923C3.90113 15.7913 3.49605 15.6155 3.23664 15.4271C2.98196 15.242 2.75799 15.018 2.57295 14.7634C2.38448 14.504 2.20866 14.0989 2.10773 13.1673C2.00275 12.1983 2 10.9194 2 9C2 7.08058 2.00275 5.80167 2.10773 4.83269C2.20866 3.90113 2.38448 3.49605 2.57295 3.23664C2.75799 2.98196 2.98196 2.75799 3.23664 2.57295C3.49605 2.38448 3.90113 2.20866 4.83269 2.10773C5.80167 2.00275 7.08058 2 9 2Z" fill="#0F0F0F"/>
</g>
</g>
</svg>

<svg width="24" height="18" fill="none" xmlns="http://www.w3.org/2000/svg"><g fill-rule="evenodd" clip-rule="evenodd" fill="#0F0F0F"><path d="M9.496 4.132A1 1 0 0 0 8 5v8a1 1 0 0 0 1.496.868l7-4a1 1 0 0 0 0-1.736l-7-4ZM13.984 9 10 11.277V6.723L13.984 9Z"/><path d="M0 9c0-3.75 0-5.625.955-6.939A5 5 0 0 1 2.06.955C3.375 0 5.251 0 9 0h6c3.75 0 5.625 0 6.939.955a5 5 0 0 1 1.106 1.106C24 3.375 24 5.251 24 9c0 3.75 0 5.625-.955 6.939a5 5 0 0 1-1.106 1.106C20.625 18 18.749 18 15 18H9c-3.75 0-5.625 0-6.939-.955A5 5 0 0 1 .955 15.94C0 14.625 0 12.749 0 9Zm9-7h6c1.92 0 3.198.003 4.167.108.932.1 1.337.276 1.596.465.255.185.479.409.664.664.189.259.364.664.465 1.596C21.997 5.802 22 7.08 22 9s-.003 3.198-.108 4.167c-.1.932-.276 1.337-.465 1.596a2.988 2.988 0 0 1-.664.664c-.259.189-.664.364-1.596.465-.969.105-2.248.108-4.167.108H9c-1.92 0-3.198-.003-4.167-.108-.932-.1-1.337-.276-1.596-.465a3.003 3.003 0 0 1-.664-.664c-.189-.259-.364-.664-.465-1.596C2.003 12.198 2 10.92 2 9s.003-3.198.108-4.167c.1-.932.276-1.337.465-1.596a3 3 0 0 1 .664-.664c.259-.189.664-.364 1.596-.465C5.802 2.003 7.08 2 9 2Z"/></g></svg>
